!!!COM:	Pierre de la Rue
**kern	**kern
*part2	*part1
*staff2	*staff1
*clefF4	*clefGv2
*k[b-]	*k[b-]
*M3/1	*M3/1
=1-	=1-
0G	1d
.	2e
.	1d
1G	.
.	4c
.	4B-
=2	=2
2F	2A
1G	2.B-
.	4A
4F	2G
4E	.
2D	2F
[2E	[2G
=3	=3
4E]	2G]
4D	.
2C	2A
2BB-	2B-
2C	1G
2E	.
2F	[2c
=4	=4
1D	4c]
.	4B-
.	2B-
1C	2c
.	1e
1G	.
.	[2d
=5	=5
1F	4d]
.	4e
.	2f
2.G	2e
.	2.d
4A	.
2B-	.
.	4e
2A	2f
=6	=6
2.G	4e
.	4f
.	4g
4A	4f
4B-	4e
4A	4d
4G	1d
4F	.
1E	.
.	2c
=7	=7
0D	1d
.	1r
1r	1A
=8	=8
1.D	2A
.	1B-
2D	4A
.	4G
1D	2A
.	2B-
=9	=9
2E	2G
1F	2.F
.	4G
4E	4A
4D	4B-
2E	2c
2F	2d
=10	=10
2D	2B-
2.C	1c
4D	.
4E	4B-
4F	4A
2G	2G
2A	2c
=11	=11
2F	2A
1G	1B-
4F	4A
4E	4G
2D	2F
2G	2B-
=12	=12
2E	2G
1F	2.c
.	4F
4E	1B-
4D	.
1C	.
.	2A
=13	=13
0.BB-	1B-
.	2r
.	1d
.	2d
=14	=14
2r	1d
1F	.
.	2c
2F	2.d
1F	.
.	4c
.	2A
=15	=15
2.G	2G
.	2.B-
4F	.
2D	.
.	4A
2.F	2F
.	2.c
4E	.
2C	.
.	4B-
=16	=16
2BB-	2G
2.F	2.A
4E	4G
2C	2E
2.D	4D
.	4E
.	4F
4C	4G
=17	=17
2AA	2A
4GG	2.B-
4AA	.
4BB-	.
4C	4A
2D	4G
.	4F
2.E-X	2G
.	4c
4D	4B-
=18	=18
4C	4A
4BB-	4G
2.C	1A
4BB-	.
4AA	1G
4GG	.
1AA	.
.	2F
=19	=19
0.GG	0.G
==	==
*-	*-
